svg/outline/alipay.svg

<svg height="471" viewBox="0 0 750 471" width="750" xmlns="http://www.w3.org/2000/svg"><g fill="#393939"><path d="m40 30c-5.5228475 0-10 4.4771525-10 10v391c0 5.522847 4.4771525 10 10 10h670c5.522847 0 10-4.477153 10-10v-391c0-5.5228475-4.477153-10-10-10zm0-30h670c22.09139 0 40 17.90861 40 40v391c0 22.09139-17.90861 40-40 40h-670c-22.09139 0-40-17.90861-40-40v-391c0-22.09139 17.90861-40 40-40z"/><g transform="translate(54 143)"><path d="m45.460353 100.349396c-4.8010666.599983-13.2029333 2.399931-18.004 6.59981-14.4032 12.599635-6.0013333 34.798994 23.4052 34.798994 16.803733 0 33.607467-10.799688 46.8104-27.599203-19.204267-8.999739-34.807733-15.599549-52.2116-13.799601z"/><path d="m153.034 115.796653c27.006 8.99974 33.007333 9.599722 33.007333 9.599722v-95.997225c0-16.199532-13.202933-29.39915-30.006666-29.39915h-126.0280003c-16.2036 0-30.0066667 13.199618-30.0066667 29.39915v125.996358c0 16.199532 13.2029333 29.39915 30.0066667 29.39915h126.0280003c16.2036 0 30.006666-13.199618 30.006666-29.39915v-1.199965s-48.010666-19.799428-72.616133-31.799081c-16.2036 19.799428-37.208267 32.399063-59.4132 32.399063-37.2082667 0-49.8110667-32.399063-31.8070667-53.398456 3.6008-4.799861 10.2022667-8.99974 20.4045334-11.39967 15.6034666-3.599896 40.8090663 2.39993 64.2142663 10.199705 4.200934-7.799775 7.801734-16.199532 10.202267-25.199272h-72.6161333v-7.199792h37.2082663v-14.399584h-45.610133v-7.199791h45.610133v-18.599463s0-2.999913 3.000667-2.999913h18.004v22.199358h45.01v6.599809h-45.01v13.199619h36.608133c-3.6008 14.399584-9.002 27.599202-15.603466 38.998873 12.002666 4.199878 22.204933 7.799774 29.406533 10.199705zm118.654933-72.184121 39.6088 85.79752h-21.004666l-10.8024-22.799341h-32.4072l-10.8024 22.799341h-13.803067l40.208933-83.397589s1.200267-2.399931 3.6008-2.399931zm-21.004666 55.198405h25.2056l-12.6028-26.99922zm87.448 31.281854h-19.204267v-81.597641c0-2.399931 1.200267-3.599896 4.200933-3.599896h15.003334zm36.008-.558604h-19.204267v-61.798214c0-2.399931 1.200267-3.599896 4.200933-3.599896h15.003334zm23.481667-64.115388h12.6028v5.999826c2.400533-1.799948 4.801067-3.599896 7.801733-4.199878 3.000667-1.199966 6.001334-1.799948 10.202267-1.799948s7.801733.599982 10.8024 2.39993c3.6008 1.799948 6.001333 3.599896 8.401867 6.59981 2.400533 2.999913 4.200933 5.999826 5.4012 9.599722 1.200266 3.599896 1.8004 7.199792 1.8004 11.399671 0 5.399843-.600134 10.199705-2.400534 14.399583-1.8004 4.199879-3.6008 8.399757-6.601466 11.399671-3.000667 2.999913-6.001334 5.999826-10.202267 7.799774s-8.401867 2.399931-13.202933 2.399931h-6.601467c-1.8004 0-3.6008-.599983-5.4012-1.199965v21.599375h-19.204267v-78.597728c-.600133-7.799774 2.400534-7.799774 6.601467-7.799774zm12.6028 46.798647c0 1.799948 0 2.999913.600133 4.199879.600134 1.199965 1.200267 2.39993 2.400534 3.599895 1.200266 1.199966 2.400533 1.799948 3.6008 2.399931 1.200266.599983 3.000666.599983 4.801066.599983s3.000667-.599983 4.801067-1.799948c1.200267-1.199966 3.000667-2.399931 3.6008-4.799861.600133-2.399931 1.8004-4.199879 2.400533-7.199792.600134-2.999914 1.200267-5.399844 1.200267-8.99974 0-4.199879 0-7.799775-.600133-10.799688-.600134-2.999913-1.200267-5.399844-2.400534-7.799775-1.200266-1.799948-2.400533-3.599896-3.6008-4.799861-1.200266-1.199965-3.000666-1.799948-4.801066-1.799948-1.200267 0-2.400534 0-3.6008.599983-1.200267.599982-2.400534 1.199965-3.000667 1.799948-1.200267.599982-1.8004 1.799948-3.000667 2.39993-1.200266 1.199966-1.8004 1.799948-2.400533 2.999914zm81.027266-46.798647c4.801067 0 8.401867.599982 12.002667 1.199965 3.000666.599983 6.001333 1.799948 8.401866 3.599896 2.400534 1.799948 3.6008 3.599896 4.801067 5.399844 1.200267 2.39993 1.8004 4.799861 1.8004 7.199792v47.39863h-19.204267v-4.799862c-1.200266 1.199966-2.400533 1.799948-3.000666 2.399931-1.200267.599983-2.400534 1.199965-3.6008 1.799948-1.200267.599983-2.400534 1.199965-4.200934 1.199965-1.8004.599983-3.6008.599983-5.4012.599983-3.000666 0-5.4012-.599983-7.801733-1.199965-2.400533-.599983-4.200933-1.799948-6.001333-3.599896-1.8004-1.199966-3.000667-2.999914-3.6008-5.399844-.600134-1.799948-1.200267-4.199879-1.200267-6.599809 0-2.399931.600133-4.799862 1.200267-6.59981.600133-1.799948 2.400533-3.599896 3.6008-5.399844 1.200266-1.799948 3.6008-2.999913 5.4012-4.199878 2.400533-1.199966 4.200933-2.399931 7.2016-3.599896 2.400533-1.199965 4.801066-1.799948 7.801733-2.999913 2.400533-.599983 5.4012-1.799948 7.801733-2.399931l2.400534-.599983v-6.599809c0-1.799948 0-3.599896-.600134-5.399844-.600133-1.199965-1.200266-2.39993-1.8004-3.599896-.600133-.599982-1.8004-1.799948-2.400533-1.799948-1.200267-.599982-2.400533-.599982-3.6008-.599982 0 0-10.202267 0-19.204267 7.799774l-4.200933-6.599809c-1.8004 1.199965 9.002-6.599809 23.4052-6.599809zm6.601467 31.79908c-1.8004.599983-3.6008 1.799948-5.4012 2.999914-1.8004 1.199965-3.6008 2.39993-5.4012 3.599896-1.8004 1.199965-3.000667 2.39993-3.6008 4.199878-1.200267 1.199966-1.200267 2.999914-1.200267 4.199879s0 2.399931.600133 3.599896c.600134 1.199965.600134 1.799948 1.200267 2.999913s1.200267 1.199965 1.8004 1.799948 1.200267.599983 2.400533.599983c1.8004 0 3.000667-.599983 4.801067-1.199966 1.8004-1.199965 3.6008-2.39993 5.4012-3.599895v-19.199446zm46.5532 53.99844h-12.6028l-.600134-11.399671s15.603467.599983 20.404534-5.399844c1.8004-2.39993 3.000666-8.99974 3.000666-8.99974l-31.206933-59.998265h21.004667l19.8044 38.998872 17.403866-38.998872h13.803067l-31.807067 70.797953c-1.200266 2.399931-6.001333 14.999567-19.204266 14.999567z"/><ellipse cx="364.602" cy="46.5" rx="9.602" ry="8.5"/><path d="m614.879 15.31h-6.601v-1.2h14.403v1.2h-6.601v18.599h-1.801v-18.599z"/><path d="m625.596133 14.109937h2.400534l4.200933 11.39967 1.8004 4.199879c.600133-1.199965 1.200267-2.999913 1.8004-4.199879l4.200933-11.39967h2.400534v20.39941h-2.400534v-12.599635-5.399844l-1.8004 4.799861-4.200933 11.999653h-1.200267l-4.200933-11.999653-1.8004-4.799861v5.399844 12.599635h-1.8004v-20.39941z"/></g></g></svg>

<svg width="750" height="471" viewBox="0 0 750 471" version="1.1" xmlns="http://www.w3.org/2000/svg" xmlns:xlink="http://www.w3.org/1999/xlink">
    <!-- Generator: Sketch 48.2 (47327) - http://www.bohemiancoding.com/sketch -->
    <desc>Created with Sketch.</desc>
    <defs></defs>
    <g id="Page-1" stroke="none" stroke-width="1" fill="none" fill-rule="evenodd">
        <g id="Alipay" fill="#393939" fill-rule="nonzero">
            <path d="M40,30 C34.4771525,30 30,34.4771525 30,40 L30,431 C30,436.522847 34.4771525,441 40,441 L710,441 C715.522847,441 720,436.522847 720,431 L720,40 C720,34.4771525 715.522847,30 710,30 L40,30 Z M40,0 L710,0 C732.09139,-3.55271368e-15 750,17.90861 750,40 L750,431 C750,453.09139 732.09139,471 710,471 L40,471 C17.90861,471 3.55271368e-15,453.09139 0,431 L0,40 C-3.55271368e-15,17.90861 17.90861,3.55271368e-15 40,0 Z" id="Rectangle-path"></path>
            <g id="Logo" transform="translate(54.000000, 143.000000)">
                <path d="M45.460353,100.349396 C40.6592864,100.949379 32.2574197,102.749327 27.456353,106.949206 C13.053153,119.548841 21.4550197,141.7482 50.861553,141.7482 C67.665286,141.7482 84.46902,130.948512 97.671953,114.148997 C78.467686,105.149258 62.86422,98.549448 45.460353,100.349396 Z" id="Shape"></path>
                <path d="M153.034,115.796653 C180.04,124.796393 186.041333,125.396375 186.041333,125.396375 L186.041333,29.39915 C186.041333,13.199618 172.8384,0 156.034667,0 L30.0066667,0 C13.8030667,0 0,13.199618 0,29.39915 L0,155.395508 C0,171.59504 13.2029333,184.794658 30.0066667,184.794658 L156.034667,184.794658 C172.238267,184.794658 186.041333,171.59504 186.041333,155.395508 L186.041333,154.195543 C186.041333,154.195543 138.030667,134.396115 113.4252,122.396462 C97.2216,142.19589 76.216933,154.795525 54.012,154.795525 C16.8037333,154.795525 4.2009333,122.396462 22.2049333,101.397069 C25.8057333,96.597208 32.4072,92.397329 42.6094667,89.997399 C58.2129333,86.397503 83.418533,92.397329 106.823733,100.197104 C111.024667,92.397329 114.625467,83.997572 117.026,74.997832 L44.4098667,74.997832 L44.4098667,67.79804 L81.618133,67.79804 L81.618133,53.398456 L36.008,53.398456 L36.008,46.198665 L81.618133,46.198665 L81.618133,27.599202 C81.618133,27.599202 81.618133,24.599289 84.6188,24.599289 L102.6228,24.599289 L102.6228,46.798647 L147.6328,46.798647 L147.6328,53.398456 L102.6228,53.398456 L102.6228,66.598075 L139.230933,66.598075 C135.630133,80.997659 130.228933,94.197277 123.627467,105.596948 C135.630133,109.796826 145.8324,113.396722 153.034,115.796653 Z M271.688933,43.612532 L311.297733,129.410052 L290.293067,129.410052 L279.490667,106.610711 L247.083467,106.610711 L236.281067,129.410052 L222.478,129.410052 L262.686933,46.012463 C262.686933,46.012463 263.8872,43.612532 266.287733,43.612532 C268.088133,43.612532 271.688933,43.612532 271.688933,43.612532 Z M250.684267,98.810937 L275.889867,98.810937 L263.287067,71.811717 L250.684267,98.810937 Z M338.132267,130.092791 L318.928,130.092791 L318.928,48.49515 C318.928,46.095219 320.128267,44.895254 323.128933,44.895254 L338.132267,44.895254 L338.132267,130.092791 Z M374.140267,129.534187 L354.936,129.534187 L354.936,67.735973 C354.936,65.336042 356.136267,64.136077 359.136933,64.136077 L374.140267,64.136077 L374.140267,129.534187 Z M397.621934,65.418799 L410.224734,65.418799 L410.224734,71.418625 C412.625267,69.618677 415.025801,67.818729 418.026467,67.218747 C421.027134,66.018781 424.027801,65.418799 428.228734,65.418799 C432.429667,65.418799 436.030467,66.018781 439.031134,67.818729 C442.631934,69.618677 445.032467,71.418625 447.433001,74.418539 C449.833534,77.418452 451.633934,80.418365 452.834201,84.018261 C454.034467,87.618157 454.634601,91.218053 454.634601,95.417932 C454.634601,100.817775 454.034467,105.617637 452.234067,109.817515 C450.433667,114.017394 448.633267,118.217272 445.632601,121.217186 C442.631934,124.217099 439.631267,127.217012 435.430334,129.01696 C431.229401,130.816908 427.028467,131.416891 422.227401,131.416891 L415.625934,131.416891 C413.825534,131.416891 412.025134,130.816908 410.224734,130.216926 L410.224734,151.816301 L391.020467,151.816301 L391.020467,73.218573 C390.420334,65.418799 393.421001,65.418799 397.621934,65.418799 Z M410.224734,112.217446 C410.224734,114.017394 410.224734,115.217359 410.824867,116.417325 C411.425001,117.61729 412.025134,118.817255 413.225401,120.01722 C414.425667,121.217186 415.625934,121.817168 416.826201,122.417151 C418.026467,123.017134 419.826867,123.017134 421.627267,123.017134 C423.427667,123.017134 424.627934,122.417151 426.428334,121.217186 C427.628601,120.01722 429.429001,118.817255 430.029134,116.417325 C430.629267,114.017394 431.829534,112.217446 432.429667,109.217533 C433.029801,106.217619 433.629934,103.817689 433.629934,100.217793 C433.629934,96.017914 433.629934,92.418018 433.029801,89.418105 C432.429667,86.418192 431.829534,84.018261 430.629267,81.61833 C429.429001,79.818382 428.228734,78.018434 427.028467,76.818469 C425.828201,75.618504 424.027801,75.018521 422.227401,75.018521 C421.027134,75.018521 419.826867,75.018521 418.626601,75.618504 C417.426334,76.218486 416.226067,76.818469 415.625934,77.418452 C414.425667,78.018434 413.825534,79.2184 412.625267,79.818382 C411.425001,81.018348 410.824867,81.61833 410.224734,82.818296 L410.224734,112.217446 Z M491.252,65.418799 C496.053067,65.418799 499.653867,66.018781 503.254667,66.618764 C506.255333,67.218747 509.256,68.418712 511.656533,70.21866 C514.057067,72.018608 515.257333,73.818556 516.4576,75.618504 C517.657867,78.018434 518.258,80.418365 518.258,82.818296 L518.258,130.216926 L499.053733,130.216926 L499.053733,125.417064 C497.853467,126.61703 496.6532,127.217012 496.053067,127.816995 C494.8528,128.416978 493.652533,129.01696 492.452267,129.616943 C491.252,130.216926 490.051733,130.816908 488.251333,130.816908 C486.450933,131.416891 484.650533,131.416891 482.850133,131.416891 C479.849467,131.416891 477.448933,130.816908 475.0484,130.216926 C472.647867,129.616943 470.847467,128.416978 469.047067,126.61703 C467.246667,125.417064 466.0464,123.617116 465.446267,121.217186 C464.846133,119.417238 464.246,117.017307 464.246,114.617377 C464.246,112.217446 464.846133,109.817515 465.446267,108.017567 C466.0464,106.217619 467.8468,104.417671 469.047067,102.617723 C470.247333,100.817775 472.647867,99.61781 474.448267,98.417845 C476.8488,97.217879 478.6492,96.017914 481.649867,94.817949 C484.0504,93.617984 486.450933,93.018001 489.4516,91.818036 C491.852133,91.218053 494.8528,90.018088 497.253333,89.418105 L499.653867,88.818122 L499.653867,82.218313 C499.653867,80.418365 499.653867,78.618417 499.053733,76.818469 C498.4536,75.618504 497.853467,74.418539 497.253333,73.218573 C496.6532,72.618591 495.452933,71.418625 494.8528,71.418625 C493.652533,70.818643 492.452267,70.818643 491.252,70.818643 C491.252,70.818643 481.049733,70.818643 472.047733,78.618417 L467.8468,72.018608 C466.0464,73.218573 476.8488,65.418799 491.252,65.418799 Z M497.853467,97.217879 C496.053067,97.817862 494.252667,99.017827 492.452267,100.217793 C490.651867,101.417758 488.851467,102.617723 487.051067,103.817689 C485.250667,105.017654 484.0504,106.217619 483.450267,108.017567 C482.25,109.217533 482.25,111.017481 482.25,112.217446 C482.25,113.417411 482.25,114.617377 482.850133,115.817342 C483.450267,117.017307 483.450267,117.61729 484.0504,118.817255 C484.650533,120.01722 485.250667,120.01722 485.8508,120.617203 C486.450933,121.217186 487.051067,121.217186 488.251333,121.217186 C490.051733,121.217186 491.252,120.617203 493.0524,120.01722 C494.8528,118.817255 496.6532,117.61729 498.4536,116.417325 L498.4536,97.217879 L497.853467,97.217879 Z M544.406667,151.216319 L531.803867,151.216319 L531.203733,139.816648 C531.203733,139.816648 546.8072,140.416631 551.608267,134.416804 C553.408667,132.016874 554.608933,125.417064 554.608933,125.417064 L523.402,65.418799 L544.406667,65.418799 L564.211067,104.417671 L581.614933,65.418799 L595.418,65.418799 L563.610933,136.216752 C562.410667,138.616683 557.6096,151.216319 544.406667,151.216319 Z" id="Shape"></path>
                <ellipse id="Oval" cx="364.602" cy="46.5" rx="9.602" ry="8.5"></ellipse>
                <polygon id="Shape" points="614.879 15.31 608.278 15.31 608.278 14.11 622.681 14.11 622.681 15.31 616.08 15.31 616.08 33.909 614.279 33.909 614.279 15.31"></polygon>
                <path d="M625.596133,14.109937 L627.996667,14.109937 L632.1976,25.509607 L633.998,29.709486 C634.598133,28.509521 635.198267,26.709573 635.7984,25.509607 L639.999333,14.109937 L642.399867,14.109937 L642.399867,34.509347 L639.999333,34.509347 L639.999333,21.909712 L639.999333,16.509868 L638.198933,21.309729 L633.998,33.309382 L632.797733,33.309382 L628.5968,21.309729 L626.7964,16.509868 L626.7964,21.909712 L626.7964,34.509347 L624.996,34.509347 L624.996,14.109937 L625.596133,14.109937 Z" id="Shape"></path>
            </g>
        </g>
    </g>
</svg>
